svgs/sharp-thin/transporter-4.svg

<svg xmlns="http://www.w3.org/2000/svg" viewBox="0 0 512 512"><!--! Font Awesome Pro 6.6.0 by @fontawesome - https://fontawesome.com License - https://fontawesome.com/license (Commercial License) Copyright 2024 Fonticons, Inc. --><path d="M224 0l8 0 48 0 8 0 0 16-8 0-48 0-8 0 0-16zM472 128l0 8 0 32 32 0 8 0 0 16-8 0-32 0 0 32 0 8-16 0 0-8 0-32-32 0-8 0 0-16 8 0 32 0 0-32 0-8 16 0zM56 352l0 8 0 32 32 0 8 0 0 16-8 0-32 0 0 32 0 8-16 0 0-8 0-32L8 408l-8 0 0-16 8 0 32 0 0-32 0-8 16 0zm40 96l8 0 304 0 8 0 0 8 0 48 0 8-16 0 0-8 0-40-288 0 0 40 0 8-16 0 0-8 0-48 0-8zm72-64l176 0 8 0 0 16-8 0-176 0-8 0 0-16 8 0zm-8-64l8 0 176 0 8 0 0 16-8 0-176 0-8 0 0-16zm-56-64l304 0 8 0 0 16-8 0-304 0-8 0 0-16 8 0zm24-64l8 0 240 0 8 0 0 16-8 0-240 0-8 0 0-16zm72-64l112 0 8 0 0 16-8 0-112 0-8 0 0-16 8 0zm24-64l64 0 8 0 0 16-8 0-64 0-8 0 0-16 8 0z"/></svg>

<svg xmlns="http://www.w3.org/2000/svg" viewBox="0 0 512 512"><!--! Font Awesome Pro 6.5.2 by @fontawesome - https://fontawesome.com License - https://fontawesome.com/license (Commercial License) Copyright 2024 Fonticons, Inc. --><path d="M224 0h8 48 8V16h-8H232h-8V0zM472 128v8 32h32 8v16h-8H472v32 8H456v-8V184H424h-8V168h8 32V136v-8h16zM56 352v8 32H88h8v16H88 56v32 8H40v-8V408H8 0V392H8 40V360v-8H56zm40 96h8H408h8v8 48 8H400v-8V464H112v40 8H96v-8V456v-8zm72-64H344h8v16h-8H168h-8V384h8zm-8-64h8H344h8v16h-8H168h-8V320zm-56-64H408h8v16h-8H104 96V256h8zm24-64h8H376h8v16h-8H136h-8V192zm72-64H312h8v16h-8H200h-8V128h8zm24-64h64 8V80h-8H224h-8V64h8z"/></svg>
